X:1
T:3b. Kurz ist der Schmerz, ewig ist die Freude.
T:3b. Kurz ist der Schmerz, ewig ist die Freude.
T:Ludwig van Beethoven Componirt für Spohr, am 3. März 1815. 
T:Dreistimmiger Canon.
C:Ludwig van BeethovenComponirt für Spohr, am 3. März 1815.
%%score [ 1 2 3 ]
L:1/8
Q:1/4=120
M:3/4
K:F
V:1 treble nm="1. Stimme."
V:2 treble nm="2. Stimme."
V:3 treble nm="3. Stimme."
V:1
"^Gehend." c2 z2 z2 | c2 z2 z2 | c z B z B B | B2 z2 _A2 | _A2 G3 G | c6- | c3 B c G | %7
w: Kurz,|kurz,|kurz, kurz, ist der|Schmerz, der|Schmerz, e- wig,|e-|* wig ist die|
 (B=A) A2 A B | (dc) c2 A A | (AB) B2 (d2- | d2 e4 | f6- | f3) e d =B | (c=B cd ec | de fd ef | %15
w: Freu- * de, ist die|Freu- * de, ja die|Freu- * de e-|||* wig ist die|Freu- * * * * *||
 gf ed cd | eg) f z z2 | z2 F2 z2 | z2 _E2 z2 | D z D z D D | C2 z2 C2 | =B,2 z2 F2 | E2 C3 C | %23
w: |* * de,|Kurz,|kurz,|kurz, kurz, ist der|Schmerz, der|Schmerz, der|Schmerz, e- wig,|
 G6- | G2 F2 F G | (BA) A2 G F | (FB,) B,2 (B,2- | B,2 C2 ^C2- | C2 D4- | D3) E F D | C C C4- | %31
w: e-|* wig ist die|Freu- * de, ist die|Freu- * de, e-|||* wig ist die|Freu- de, e-|
 C4- C C | c6- | c B c (d/e/) f F |: z2 _A2 z2 | z2 G2 z2 | F z F z F F | E2 z2 F2 | F2 z2 =B,2 | %39
w: * * wig,|e-|* wig ist die * Freu- de.|Kurz,|kurz,|kurz, kurz, ist der|Schmerz, der|Schmerz, der|
 C2 z2 z2 | z2 c3 c | f6- | f3 e f c | (_ed) d2 z2 | (G4 A2- | A4 =B2- | B3) c A F | (ED EF GE | %48
w: Schmerz,|e- wig,|e-|* wig ist die|Freu- * de,|e- *||* wig ist die|Freu- * * * * *|
 FG AF GA | BA GF EF | GB) A z z2 | c2 z2 z2 | c2 z2 z2 | c z B z B B | B2 z2 _A2 | _A2 G3 G | %56
w: ||* * de.|Kurz,|kurz,|kurz, kurz, ist der|Schmerz, der|Schmerz, e- wig,|
 c6- | c3 B c G | (B=A) A2 A B | (dc) c2 A A | (AB) B2 (d2- | d2 e4 | f6- | f3) e d =B | %64
w: e-|* wig ist die|Freu- * de, ist die|Freu- * de, ja die|Freu- * de e-|||* wig ist die|
 (c=B cd ec | de fd ef | gf ed cd | eg) f z z2 | z2 F2 z2 | z2 _E2 z2 | D z D z D D | C2 z2 C2 | %72
w: Freu- * * * * *|||* * de,|Kurz,|kurz,|kurz, kurz, ist der|Schmerz, der|
 =B,2 z2 F2 | E2 C3 C | G6- | G2 F2 F G | (BA) A2 G F | (FB,) B,2 (B,2- | B,2 C2 ^C2- | C2 D4- | %80
w: Schmerz, der|Schmerz, e- wig,|e-|* wig ist die|Freu- * de, ist die|Freu- * de, e-|||
 D3) E F D | C C C4- | C4- C C | c6- | c B c (d/e/) f F |] %85
w: * wig ist die|Freu- de, e-|* * wig,|e-|* wig ist die * Freu- de.|
V:2
 z6 | z6 | z6 | z6 | z6 | z6 | z6 | z6 | z6 | z6 | z6 | z6 | z6 | z6 | z6 | z6 | z6 | c2 z2 z2 | %18
w: |||||||||||||||||Kurz,|
 c2 z2 z2 | c z B z B B | B2 z2 _A2 | _A2 G3 G | c6- | c3 B c G | (B=A) A2 A B | (dc) c2 A A | %26
w: kurz,|kurz, kurz, ist der|Schmerz, der|Schmerz, e- wig,|e-|* wig ist die|Freu- * de, ist die|Freu- * de, ja die|
 (AB) B2 (d2- | d2 e4 | f6- | f3) e d =B | (c=B cd ec | de fd ef | gf ed cd | eg) f z z2 |: %34
w: Freu- * de e-|||* wig ist die|Freu- * * * * *|||* * de,|
 z2 F2 z2 | z2 _E2 z2 | D z D z D D | C2 z2 C2 | =B,2 z2 F2 | E2 C3 C | G6- | G2 F2 F G | %42
w: Kurz,|kurz,|kurz, kurz, ist der|Schmerz, der|Schmerz, der|Schmerz, e- wig,|e-|* wig ist die|
 (BA) A2 G F | (FB,) B,2 (B,2- | B,2 C2 ^C2- | C2 D4- | D3) E F D | C C C4- | C4- C C | c6- | %50
w: Freu- * de, ist die|Freu- * de, e-|||* wig ist die|Freu- de, e-|* * wig,|e-|
 c B c (d/e/) f F | z2 _A2 z2 | z2 G2 z2 | F z F z F F | E2 z2 F2 | F2 z2 =B,2 | C2 z2 z2 | %57
w: * wig ist die * Freu- de.|Kurz,|kurz,|kurz, kurz, ist der|Schmerz, der|Schmerz, der|Schmerz,|
 z2 c3 c | f6- | f3 e f c | (_ed) d2 z2 | (G4 A2- | A4 =B2- | B3) c A F | (ED EF GE | FG AF GA | %66
w: e- wig,|e-|* wig ist die|Freu- * de,|e- *||* wig ist die|Freu- * * * * *||
 BA GF EF | GB) A z z2 | c2 z2 z2 | c2 z2 z2 | c z B z B B | B2 z2 _A2 | _A2 G3 G | c6- | %74
w: |* * de.|Kurz,|kurz,|kurz, kurz, ist der|Schmerz, der|Schmerz, e- wig,|e-|
 c3 B c G | (B=A) A2 A B | (dc) c2 A A | (AB) B2 (d2- | d2 e4 | f6- | f3) e d =B | (c=B cd ec | %82
w: * wig ist die|Freu- * de, ist die|Freu- * de, ja die|Freu- * de e-|||* wig ist die|Freu- * * * * *|
 de fd ef | gf ed cd | eg) f z z2 |] %85
w: ||* * de,|
V:3
 z6 | z6 | z6 | z6 | z6 | z6 | z6 | z6 | z6 | z6 | z6 | z6 | z6 | z6 | z6 | z6 | z6 | z6 | z6 | %19
w: |||||||||||||||||||
 z6 | z6 | z6 | z6 | z6 | z6 | z6 | z6 | z6 | z6 | z6 | z6 | z6 | z6 | z6 |: c2 z2 z2 | c2 z2 z2 | %36
w: |||||||||||||||Kurz,|kurz,|
 c z B z B B | B2 z2 _A2 | _A2 G3 G | c6- | c3 B c G | (B=A) A2 A B | (dc) c2 A A | (AB) B2 (d2- | %44
w: kurz, kurz, ist der|Schmerz, der|Schmerz, e- wig,|e-|* wig ist die|Freu- * de, ist die|Freu- * de, ja die|Freu- * de e-|
 d2 e4 | f6- | f3) e d =B | (c=B cd ec | de fd ef | gf ed cd | eg) f z z2 | z2 F2 z2 | z2 _E2 z2 | %53
w: ||* wig ist die|Freu- * * * * *|||* * de,|Kurz,|kurz,|
 D z D z D D | C2 z2 C2 | =B,2 z2 F2 | E2 C3 C | G6- | G2 F2 F G | (BA) A2 G F | (FB,) B,2 (B,2- | %61
w: kurz, kurz, ist der|Schmerz, der|Schmerz, der|Schmerz, e- wig,|e-|* wig ist die|Freu- * de, ist die|Freu- * de, e-|
 B,2 C2 ^C2- | C2 D4- | D3) E F D | C C C4- | C4- C C | c6- | c B c (d/e/) f F | z2 _A2 z2 | %69
w: ||* wig ist die|Freu- de, e-|* * wig,|e-|* wig ist die * Freu- de.|Kurz,|
 z2 G2 z2 | F z F z F F | E2 z2 F2 | F2 z2 =B,2 | C2 z2 z2 | z2 c3 c | f6- | f3 e f c | %77
w: kurz,|kurz, kurz, ist der|Schmerz, der|Schmerz, der|Schmerz,|e- wig,|e-|* wig ist die|
 (_ed) d2 z2 | (G4 A2- | A4 =B2- | B3) c A F | (ED EF GE | FG AF GA | BA GF EF | GB) A z z2 |] %85
w: Freu- * de,|e- *||* wig ist die|Freu- * * * * *|||* * de.|

